assets/img/covid/masker.svg

<svg width="76" height="73" viewBox="0 0 76 73" fill="none" xmlns="http://www.w3.org/2000/svg">
<path d="M9.84384 55.5796L12.1969 58.9466L6.82017 61.8759C6.58681 62.0564 6.31711 62.1894 6.02773 62.2667C5.73835 62.3439 5.43545 62.3637 5.13774 62.3248C4.54619 62.3309 3.96232 62.1967 3.43864 61.9342C2.91496 61.6716 2.46788 61.2891 2.13761 60.8209L1.60817 60.0689L9.84384 55.5796Z" fill="#21ABAB"/>
<path d="M2.59645 26.8479L9.84384 21.9097V25.2767L1.60817 30.8883V28.6773C1.60803 28.3193 1.69766 27.9665 1.86958 27.6482C2.0415 27.33 2.29072 27.0556 2.59645 26.8479Z" fill="#21ABAB"/>
<path d="M66.317 21.9097L73.5644 26.8479C73.8702 27.0556 74.1194 27.33 74.2913 27.6482C74.4632 27.9665 74.5529 28.3193 74.5527 28.6773V30.8883L66.317 25.2767V21.9097Z" fill="#21ABAB"/>
<path d="M74.5527 60.0689L74.0233 60.8209C73.693 61.2891 73.2459 61.6716 72.7222 61.9342C72.1986 62.1967 71.6147 62.3309 71.0231 62.3248C70.7254 62.3637 70.4225 62.3439 70.1332 62.2667C69.8438 62.1894 69.5741 62.0564 69.3407 61.8759L63.964 58.9466L66.317 55.5796L74.5527 60.0689Z" fill="#21ABAB"/>
<path d="M19.256 21.9097V25.2767H12.9852H9.84384V21.9097H16.2559H19.256Z" fill="#34C1AD"/>
<path d="M38.0804 44.3563C48.6692 44.3563 53.3753 43.234 53.3753 43.234V56.702C48.416 58.145 43.2651 58.9009 38.0804 58.9467C32.8958 58.9009 27.7449 58.145 22.7856 56.702V43.234C22.7856 43.234 27.4917 44.3563 38.0804 44.3563Z" fill="#34C1AD"/>
<path d="M12.5969 54.0084L15.7265 52.2126L18.0795 55.5796L15.6676 56.9601L12.1969 58.9466L9.84384 55.5796L12.5969 54.0084Z" fill="#34C1AD"/>
<path d="M66.317 55.5796L63.964 58.9466L60.4932 56.9601L58.0814 55.5796L60.4344 52.2126L63.564 54.0084L66.317 55.5796Z" fill="#34C1AD"/>
<path d="M59.905 21.9097H66.317V25.2767H63.1757H56.9048V21.9097H59.905Z" fill="#34C1AD"/>
<path d="M58.0813 55.5796L60.4931 56.9601L60.4343 57.0611C55.5753 61.1464 48.422 64.5583 38.0803 64.5583C27.7387 64.5583 20.5854 61.1464 15.7264 57.0611L15.6675 56.9601L18.0794 55.5796L15.7264 52.2126L12.5968 54.0084C10.9206 52.1383 9.48301 50.085 8.31426 47.8917C6.98646 45.3991 6.3008 42.6404 6.31417 39.8445V37.6223C6.31417 31.3148 9.22019 28.8906 12.9851 25.2767H19.2559V21.9097H16.2558C16.8558 21.225 17.4676 20.4843 18.0794 19.665C21.1244 15.6819 24.9923 12.3359 29.4447 9.83337C31.0652 8.91826 32.9146 8.43745 34.7978 8.44168H41.3628C43.246 8.43745 45.0955 8.91826 46.716 9.83337C51.1684 12.3359 55.0363 15.6819 58.0813 19.665C58.6931 20.4843 59.3049 21.225 59.9049 21.9097H56.9047V25.2767H63.1756C66.9405 28.8906 69.8465 31.3148 69.8465 37.6223V39.8445C69.8599 42.6404 69.1742 45.3991 67.8464 47.8917C66.6777 50.085 65.2401 52.1383 63.5639 54.0084L60.4343 52.2126L58.0813 55.5796ZM53.3752 56.702V43.234C53.3752 43.234 48.6691 44.3563 38.0803 44.3563C27.4916 44.3563 22.7855 43.234 22.7855 43.234V56.702C27.7448 58.145 32.8957 58.9009 38.0803 58.9466C43.265 58.9009 48.4159 58.145 53.3752 56.702Z" fill="#F5F5F5"/>
<path d="M72.1997 58.7861L74.5527 60.0689V30.8882L72.1997 29.2844V58.7861Z" fill="#107C82"/>
<path d="M3.96122 29.2844L1.60817 30.8882V60.0689L3.96122 58.7861V29.2844Z" fill="#107C82"/>
<path d="M23.76 18.5427H25.1271C26.6723 18.5453 28.1656 18.0106 29.3273 17.0387C30.5627 16.0174 32.151 14.6482 33.2452 13.5371C33.7903 12.9918 34.4457 12.5576 35.1716 12.2605C35.8975 11.9635 36.679 11.8098 37.4689 11.8087H38.6925C39.4824 11.8098 40.2638 11.9635 40.9898 12.2605C41.7157 12.5576 42.371 12.9918 42.9162 13.5371C44.0104 14.6482 45.5987 16.0174 46.834 17.0387C47.9958 18.0106 49.489 18.5453 51.0342 18.5427H52.4013C53.0253 18.5428 53.6238 18.7794 54.0649 19.2004L56.9051 21.9097H59.9052C59.3052 21.225 58.6934 20.4843 58.0816 19.665C55.0366 15.6819 51.1687 12.3359 46.7164 9.83337C45.0958 8.91826 43.2464 8.43745 41.3632 8.44168H34.7982C32.915 8.43745 31.0655 8.91826 29.445 9.83337C24.9926 12.3359 21.1247 15.6819 18.0797 19.665C17.468 20.4843 16.8562 21.225 16.2561 21.9097H19.2563L22.0964 19.2004C22.5376 18.7794 23.136 18.5428 23.76 18.5427Z" fill="#E3E3E3"/>
<path d="M51.034 17.4203C49.7715 17.42 48.5523 16.9811 47.6044 16.1857C46.6773 15.4192 44.9478 13.9545 43.7654 12.7547C43.1084 12.1031 42.3207 11.5841 41.4491 11.2288C40.5776 10.8734 39.64 10.6889 38.6922 10.6863H37.4686C36.5187 10.6899 35.5792 10.8761 34.7063 11.2338C33.8335 11.5915 33.0451 12.1134 32.3884 12.7682C31.2119 13.9601 29.4836 15.4248 28.5506 16.1958C27.603 16.9868 26.3861 17.422 25.1269 17.4203H23.9621C23.6501 17.4203 23.3509 17.5385 23.1302 17.749C22.9096 17.9595 22.7856 18.2449 22.7856 18.5426C22.7856 18.8403 22.9096 19.1257 23.1302 19.3362C23.3509 19.5467 23.6501 19.6649 23.9621 19.6649H25.1269C26.9551 19.6677 28.722 19.0358 30.0977 17.8872C31.0589 17.0926 32.8567 15.5707 34.0979 14.3137C34.5318 13.8769 35.0545 13.529 35.634 13.2913C36.2136 13.0535 36.8378 12.9309 37.4686 12.9309H38.6922C39.3218 12.9301 39.9449 13.0515 40.5236 13.2879C41.1023 13.5243 41.6245 13.8706 42.0583 14.3058C43.3042 15.5707 45.1019 17.0926 46.0585 17.8827C47.4351 19.0334 49.2036 19.6669 51.034 19.6649H52.1987C52.5108 19.6649 52.81 19.5467 53.0307 19.3362C53.2513 19.1257 53.3753 18.8403 53.3753 18.5426C53.3753 18.2449 53.2513 17.9595 53.0307 17.749C52.81 17.5385 52.5108 17.4203 52.1987 17.4203H51.034Z" fill="#D4D4D4"/>
<path d="M22.7856 52.5V56.702C27.7449 58.145 32.8958 58.9009 38.0804 58.9467C43.2651 58.9009 48.416 58.145 53.3753 56.702V52.5C48.4146 53.9069 43.2544 54.5673 38.0804 54.4573C32.9065 54.5673 27.7462 53.9069 22.7856 52.5Z" fill="#21ABAB"/>
<path d="M63.1756 25.2766H56.9047C56.9047 25.2766 65.1404 26.3989 65.1404 38.7446C65.1404 45.8939 60.552 50.2429 53.3752 52.4999V56.7019C48.4159 58.1449 43.265 58.9008 38.0803 58.9466C32.8957 58.9008 27.7448 58.1449 22.7855 56.7019V52.4999C15.6087 50.2429 11.0203 45.8939 11.0203 38.7446C11.0203 26.3989 19.2559 25.2766 19.2559 25.2766H12.9851C9.22019 28.8905 6.31417 31.3148 6.31417 37.6223V39.8445C6.3008 42.6404 6.98646 45.399 8.31426 47.8916C9.48301 50.085 10.9206 52.1383 12.5968 54.0083L15.7264 52.2126L18.0794 55.5796L15.6675 56.9601L15.7264 57.0611C20.5854 61.1464 27.7387 64.5582 38.0803 64.5582C48.422 64.5582 55.5753 61.1464 60.4343 57.0611L60.4931 56.9601L58.0813 55.5796L60.4343 52.2126L63.5639 54.0083C65.2401 52.1383 66.6777 50.085 67.8464 47.8916C69.1742 45.399 69.8599 42.6404 69.8465 39.8445V37.6223C69.8465 31.3148 66.9405 28.8905 63.1756 25.2766Z" fill="#E3E3E3"/>
<path d="M29.8448 48.8456H28.6682V47.7233H26.3152V48.8456H25.1387V51.0903H26.3152V52.2126H28.6682V51.0903H29.8448V48.8456Z" fill="#F5F5F5"/>
<path d="M42.7865 46.601H33.3743C32.7246 46.601 32.1978 47.1034 32.1978 47.7233C32.1978 48.3431 32.7246 48.8456 33.3743 48.8456H42.7865C43.4363 48.8456 43.9631 48.3431 43.9631 47.7233C43.9631 47.1034 43.4363 46.601 42.7865 46.601Z" fill="#F5F5F5"/>
<path d="M43.9631 49.968H32.1978C31.548 49.968 31.0213 50.4705 31.0213 51.0904C31.0213 51.7102 31.548 52.2127 32.1978 52.2127H43.9631C44.6128 52.2127 45.1396 51.7102 45.1396 51.0904C45.1396 50.4705 44.6128 49.968 43.9631 49.968Z" fill="#F5F5F5"/>
<path d="M43.9631 53.335H32.1978C31.548 53.335 31.0213 53.8374 31.0213 54.4573C31.0213 55.0771 31.548 55.5796 32.1978 55.5796H43.9631C44.6128 55.5796 45.1396 55.0771 45.1396 54.4573C45.1396 53.8374 44.6128 53.335 43.9631 53.335Z" fill="#F5F5F5"/>
</svg>

<svg xmlns="http://www.w3.org/2000/svg" xmlns:xlink="http://www.w3.org/1999/xlink" width="76" height="73" fill="none" xmlns:v="https://vecta.io/nano"><path d="M9.844 55.58l2.353 3.367-5.377 2.93a2.24 2.24 0 0 1-.792.391 2.3 2.3 0 0 1-.89.058 3.71 3.71 0 0 1-1.699-.391 3.52 3.52 0 0 1-1.301-1.113l-.53-.752 8.236-4.5zM2.596 26.848L9.844 21.9v3.367L1.608 30.88v-2.2a2.16 2.16 0 0 1 .261-1.029 2.28 2.28 0 0 1 .727-.8zm63.72-4.948l7.247 4.938a2.28 2.28 0 0 1 .727.8 2.16 2.16 0 0 1 .261 1.029v2.2l-8.236-5.612V21.9zm8.236 38.17l-.53.752a3.52 3.52 0 0 1-1.301 1.113 3.71 3.71 0 0 1-1.699.391 2.3 2.3 0 0 1-.89-.058 2.24 2.24 0 0 1-.793-.391l-5.377-2.93 2.353-3.367 8.236 4.5z" fill="#21abab"/><path d="M19.256 21.9v3.367H9.844V21.9h9.412zM38.08 44.356c10.6 0 15.295-1.122 15.295-1.122v13.468a56.47 56.47 0 0 1-15.295 2.245c-5.185-.046-10.335-.802-15.295-2.245V43.234s4.706 1.122 15.295 1.122zm-25.483 9.652l3.13-1.796 2.353 3.367-5.883 3.367-2.353-3.367 2.753-1.57zm53.72 1.572l-2.353 3.367-5.883-3.367 2.353-3.367 3.13 1.796 2.753 1.57zM59.905 21.9h6.412v3.367h-9.412V21.9h3z" fill="#34c1ad"/><path d="M58.08 55.58l2.412 1.38-.06.1c-4.86 4.085-12.012 7.497-22.354 7.497s-17.495-3.412-22.354-7.497l-.06-.1 2.412-1.38-2.353-3.367-3.13 1.796c-1.676-1.87-3.114-3.923-4.283-6.117a16.93 16.93 0 0 1-2-8.047v-2.222c0-6.308 2.906-8.732 6.67-12.346h6.27V21.9h-3c.6-.685 1.212-1.425 1.824-2.245 3.045-3.983 6.913-7.33 11.365-9.832 1.62-.915 3.47-1.396 5.353-1.392h6.565c1.883-.004 3.733.477 5.353 1.392 4.452 2.503 8.32 5.85 11.365 9.832.612.82 1.224 1.56 1.824 2.245h-3v3.367h6.27c3.765 3.614 6.67 6.038 6.67 12.346v2.222a16.93 16.93 0 0 1-2 8.047 31.03 31.03 0 0 1-4.283 6.117l-3.13-1.796-2.353 3.367zm-4.706 1.122V43.234s-4.706 1.122-15.295 1.122-15.295-1.122-15.295-1.122v13.468a56.55 56.55 0 0 0 15.295 2.245 56.55 56.55 0 0 0 15.295-2.245z" fill="#f5f5f5"/><path d="M72.2 58.786l2.353 1.283V30.89L72.2 29.284v29.502zM3.96 29.284l-2.353 1.604v29.18l2.353-1.283v-29.5z" fill="#107c82"/><path d="M23.76 18.543h1.367c1.545.003 3.04-.532 4.2-1.504l3.918-3.502a5.86 5.86 0 0 1 1.926-1.277c.726-.297 1.507-.45 2.297-.452h1.224c.8.001 1.57.155 2.297.452a5.86 5.86 0 0 1 1.926 1.277c1.094 1.11 2.682 2.48 3.918 3.502 1.162.972 2.655 1.507 4.2 1.504H52.4c.624 0 1.223.237 1.664.658l2.84 2.71h3l-1.824-2.245c-3.045-3.983-6.913-7.33-11.365-9.832-1.62-.915-3.47-1.396-5.353-1.392h-6.565c-1.883-.004-3.733.477-5.353 1.392-4.452 2.503-8.32 5.85-11.365 9.832-.612.82-1.223 1.56-1.824 2.245h3l2.84-2.71c.44-.42 1.04-.658 1.664-.658z" fill="#e3e3e3"/><path d="M51.034 17.42c-1.262 0-2.482-.44-3.43-1.235l-3.84-3.43c-.657-.652-1.445-1.17-2.316-1.526a7.36 7.36 0 0 0-2.757-.543H37.47c-.95.004-1.89.2-2.762.548s-1.66.88-2.318 1.534c-1.176 1.192-2.905 2.657-3.838 3.428-.948.79-2.165 1.226-3.424 1.225h-1.165c-.312 0-.61.118-.832.33s-.345.496-.345.794.124.583.345.794.52.33.832.33h1.165c1.828.003 3.595-.63 4.97-1.778l4-3.573a4.65 4.65 0 0 1 1.536-1.022c.58-.238 1.204-.36 1.835-.36h1.224a4.83 4.83 0 0 1 1.831.357c.58.236 1.1.583 1.535 1.018 1.246 1.265 3.044 2.787 4 3.577 1.377 1.15 3.145 1.784 4.975 1.782H52.2c.312 0 .61-.118.832-.33s.345-.496.345-.794-.124-.583-.345-.794-.52-.33-.832-.33h-1.165z" fill="#d4d4d4"/><path d="M22.786 52.5v4.202c4.96 1.443 10.1 2.2 15.295 2.245 5.185-.046 10.336-.802 15.295-2.245V52.5a52.03 52.03 0 0 1-15.295 1.957A52.03 52.03 0 0 1 22.786 52.5z" fill="#21abab"/><path d="M63.176 25.277h-6.27S65.14 26.4 65.14 38.745c0 7.15-4.588 11.498-11.765 13.755v4.202c-4.96 1.443-10.1 2.2-15.295 2.245-5.185-.046-10.335-.802-15.295-2.245V52.5C15.61 50.243 11.02 45.894 11.02 38.745c0-12.346 8.236-13.468 8.236-13.468h-6.27c-3.765 3.614-6.67 6.038-6.67 12.346v2.222a16.93 16.93 0 0 0 2 8.047c1.17 2.193 2.606 4.247 4.283 6.117l3.13-1.796 2.353 3.367-2.412 1.38.06.1c4.86 4.085 12.012 7.497 22.354 7.497s17.495-3.412 22.354-7.497l.06-.1-2.412-1.38 2.353-3.367 3.13 1.796c1.676-1.87 3.114-3.923 4.283-6.117a16.93 16.93 0 0 0 2-8.047v-2.222c0-6.308-2.906-8.732-6.67-12.346z" fill="#e3e3e3"/><g fill="#f5f5f5"><path d="M29.845 48.846h-1.177v-1.122h-2.353v1.122H25.14V51.1h1.177v1.122h2.353V51.1h1.177v-2.245zM42.787 46.6h-9.412c-.65 0-1.176.502-1.176 1.122s.527 1.122 1.176 1.122h9.412c.65 0 1.177-.502 1.177-1.122s-.527-1.122-1.177-1.122z"/><use xlink:href="#B"/><use xlink:href="#B" y="3.367"/></g><defs ><path id="B" d="M43.963 49.968H32.198c-.65 0-1.177.502-1.177 1.122s.527 1.122 1.177 1.122h11.765c.65 0 1.177-.502 1.177-1.122s-.527-1.122-1.177-1.122z"/></defs></svg>
